src/lib/runemarks/svg/factions-chaos-bladeborn-the-dread-pageant.svg

<svg xmlns="http://www.w3.org/2000/svg" width="300" height="300" viewBox="0 0 300 300"><title>factions-chaos-bladeborn-the-dread-pageant</title><path d="M57.878 199.74c1.721-26.738 4.103-53.333 21.314-75.991 1.98-2.664 1.274-7.357 1.886-11.106-2.83-.684-6.036-1.062-9.36-1.062-.755 0-1.485.023-2.216.07h.117c-5.211.99-9.855 2.735-14.075 5.163l.236-.117c-3.253 2.074-7.191 3.278-11.412 3.278a21.4 21.4 0 0 1-12.614-4.079l.07.047c-5.895-3.772-11.883-7.262-17.777-10.846 5.163-1.202 11.719-2.311 18.391-3.089l.872-.095h.424c15.514 0 28.6-10.516 32.467-24.804l.047-.236c1.226-3.56 1.957-7.663 1.957-11.906 0-12.779-6.413-24.026-16.222-30.745l-.142-.095-1.462-1.627C29.937 19.061 27.013 19.155 7.608 33.514a30 30 0 0 1-6.791 2.759l-.212.047c0-3.325-1.368-7.356 0-9.809C13.077 4.96 46.629-1.783 69.052 9.417 83.67 15.382 94.87 27.101 99.986 41.695l.117.377c2.027 5.848 3.206 12.567 3.206 19.57 0 7.898-1.485 15.443-4.196 22.376l.142-.424c-.848 2.146.684 5.305 1.109 7.946a28.8 28.8 0 0 0 7.379-3.206l-.117.07c16.882-14.948 37.702-25.888 60.666-31.123l.943-.189c34.235-5.895 69.036-6.673 101.645 9.478 2.476 1.274 3.679 4.951 5.47 7.521-3.23.848-7.357 3.42-9.478 2.216-23.366-12.473-45.765-6.814-69.72-.495-20.277 5.564-38.031 13.534-54.183 23.814l.802-.472a24.2 24.2 0 0 0-7.828 6.861l-.047.07c-1.815 2.735-3.584 7.451-2.405 9.478s6.484 6.814 9.596 6.484c6.626-.943 12.591-3.018 17.966-6.036l-.259.142c12.637-7.474 27.893-11.884 44.162-11.884s31.5 4.41 44.562 12.096l-.401-.236c22.942 11.365 40.059 31.618 46.92 56.115l.165.613c15.066 59.063-16.009 109.236-70.427 120.436-57.932 11.954-98.32-17.777-114.919-71.63-2.263-6.72-3.56-14.476-3.56-22.518a72.55 72.55 0 0 1 7.451-32.089l-.165.424c2.805-4.504 4.811-9.832 5.682-15.491l.023-.212c-.284-4.692-2.475-8.818-5.871-11.6l-.023-.023c-1.721-1.368-7.616 1.132-10.516 3.325-2.334 2.523-4.126 5.517-5.163 8.889l-.047.165c-15.75 35.721-23.271 72.125-11.295 111.123 2.027 7.805 3.82 17.401 4.975 27.185l.095 1.014c-7.357-7.38-13.887-15.632-19.334-24.545l-.33-.566c-9.337-18.32-14.76-39.964-14.76-62.883 0-1.462.023-2.9.07-4.338v.212h-.212zm213.9 0c1.109-36.262-35.344-66.49-68.47-66.773-30.792 0-66.655 36.663-66.82 67.504s37.136 69.579 68.447 67.881c33.622-1.721 68.706-31.807 66.725-68.494z"/><path d="M260.648 201.343v.636c0 30.393-24.662 55.055-55.102 55.055-.683 0-1.391-.023-2.074-.047h.095c-26.619.424-54.677-24.615-55.102-58.284 0-26.242 27.893-56.162 57.412-54.96s57.765 27.28 54.771 57.601z"/></svg>

<?xml version="1.0" encoding="UTF-8" standalone="no"?>
<!DOCTYPE svg PUBLIC "-//W3C//DTD SVG 1.1//EN" "http://www.w3.org/Graphics/SVG/1.1/DTD/svg11.dtd">
<svg width="100%" height="100%" viewBox="0 0 300 300" version="1.1" xmlns="http://www.w3.org/2000/svg" xmlns:xlink="http://www.w3.org/1999/xlink" xml:space="preserve" xmlns:serif="http://www.serif.com/" style="fill-rule:evenodd;clip-rule:evenodd;stroke-linejoin:round;stroke-miterlimit:2;">
    <path d="M57.878,199.74C59.599,173.002 61.981,146.407 79.192,123.749C81.172,121.085 80.466,116.392 81.078,112.643C78.248,111.959 75.042,111.581 71.718,111.581C70.963,111.581 70.233,111.604 69.502,111.651L69.619,111.651C64.408,112.641 59.764,114.386 55.544,116.814L55.78,116.697C52.527,118.771 48.589,119.975 44.368,119.975C39.838,119.985 35.42,118.556 31.754,115.896L31.824,115.943C25.929,112.171 19.941,108.681 14.047,105.097C19.21,103.895 25.766,102.786 32.438,102.008L33.31,101.913L33.734,101.913C49.248,101.913 62.334,91.397 66.201,77.109L66.248,76.873C67.474,73.313 68.205,69.21 68.205,64.967C68.205,52.188 61.792,40.941 51.983,34.222L51.841,34.127L50.379,32.5C29.937,19.061 27.013,19.155 7.608,33.514C5.466,34.708 3.185,35.634 0.817,36.273L0.605,36.32C0.605,32.995 -0.763,28.964 0.605,26.511C13.077,4.96 46.629,-1.783 69.052,9.417C83.67,15.382 94.87,27.101 99.986,41.695L100.103,42.072C102.13,47.92 103.309,54.639 103.309,61.642C103.309,69.54 101.824,77.085 99.113,84.018L99.255,83.594C98.407,85.74 99.939,88.899 100.364,91.54C102.962,90.822 105.445,89.743 107.743,88.334L107.626,88.404C124.508,73.456 145.328,62.516 168.292,57.281L169.235,57.092C203.47,51.197 238.271,50.419 270.88,66.57C273.356,67.844 274.559,71.521 276.35,74.091C273.12,74.939 268.993,77.511 266.872,76.307C243.506,63.834 221.107,69.493 197.152,75.812C176.875,81.376 159.121,89.346 142.969,99.626L143.771,99.154C140.695,100.846 138.024,103.187 135.943,106.015L135.896,106.085C134.081,108.82 132.312,113.536 133.491,115.563C134.67,117.59 139.975,122.377 143.087,122.047C149.713,121.104 155.678,119.029 161.053,116.011L160.794,116.153C173.431,108.679 188.687,104.269 204.956,104.269C221.225,104.269 236.456,108.679 249.518,116.365L249.117,116.129C272.059,127.494 289.176,147.747 296.037,172.244L296.202,172.857C311.268,231.92 280.193,282.093 225.775,293.293C167.843,305.247 127.455,275.516 110.856,221.663C108.593,214.943 107.296,207.187 107.296,199.145C107.286,188.019 109.836,177.039 114.747,167.056L114.582,167.48C117.387,162.976 119.393,157.648 120.264,151.989L120.287,151.777C120.003,147.085 117.812,142.959 114.416,140.177L114.393,140.154C112.672,138.786 106.777,141.286 103.877,143.479C101.543,146.002 99.751,148.996 98.714,152.368L98.667,152.533C82.917,188.254 75.396,224.658 87.372,263.656C89.399,271.461 91.192,281.057 92.347,290.841L92.442,291.855C85.085,284.475 78.555,276.223 73.108,267.31L72.778,266.744C63.441,248.424 58.018,226.78 58.018,203.861C58.018,202.399 58.041,200.961 58.088,199.523L58.088,199.735L57.876,199.735L57.878,199.74ZM271.778,199.74C272.887,163.478 236.434,133.25 203.308,132.967C172.516,132.967 136.653,169.63 136.488,200.471C136.323,231.312 173.624,270.05 204.935,268.352C238.557,266.631 273.641,236.545 271.66,199.858L271.778,199.74Z" style="fill-rule:nonzero;"/>
    <path d="M260.648,201.343L260.648,201.979C260.648,232.372 235.986,257.034 205.546,257.034C204.863,257.034 204.155,257.011 203.472,256.987L203.567,256.987C176.948,257.411 148.89,232.372 148.465,198.703C148.465,172.461 176.358,142.541 205.877,143.743C235.396,144.945 263.642,171.023 260.648,201.344L260.648,201.343Z" style="fill-rule:nonzero;"/>
</svg>
